X:1
T:Planxty [1]
T:Planxty [1]
T:Attributed to Carolan
C:Attributed to Carolan
L:1/8
M:3/4
K:Emin
V:1 treble 
V:1
 Bc/d/ | e2 f2 ed | e2 f2 g2 | B2 cBAG | AcBAGE | G4 GE | DEGABc | B2 cBAG | A4 Bc/d/ | e2 f2 ed | %10
 e2 f2 g2 | B2 cBAG | AcBAGE | c4 (3cBA | B4 AG | ABcBAG | E4 || %17

